packages/foundations/assets/icons/functional/images/transportation/handcart_inverted.svg

<svg xmlns="http://www.w3.org/2000/svg" width="32" height="32" fill="none"><path fill="#1A1C1F" fill-rule="evenodd" d="M24.773 4.678c-.166.041-.445.272-.533.442-.12.232-.102.592.04.801.183.268.355.369.734.429.42.067.707.244.849.523.08.157.348 1.83 1.122 7 .56 3.736 1.023 6.84 1.03 6.896.01.091-.172.148-1.704.534-1.815.456-1.892.487-2.076.841-.097.187-.096.541.003.732.043.083.15.212.238.286.308.259.387.25 2.726-.336 1.186-.297 2.232-.586 2.325-.644a.84.84 0 0 0 .263-.303l.094-.199-1.105-7.387c-.608-4.062-1.152-7.545-1.208-7.739a2.9 2.9 0 0 0-.784-1.221c-.532-.468-1.494-.781-2.014-.655M2.635 13.595c-.243.11-.437.377-.484.662-.063.387.272.836.689.925l.147.031.001 1.26c.001 1.422.05 1.772.329 2.342.12.244.303.487.576.761.437.439.832.676 1.387.833.329.093.745.098 8.213.098 8.754 0 8.142.024 8.874-.359.4-.21 1.072-.869 1.275-1.251.297-.558.358-.965.358-2.393v-1.292l.2-.038c.287-.053.582-.378.629-.692a.84.84 0 0 0-.454-.869l-.238-.12-10.642.002c-10.259.001-10.65.004-10.86.1m3.693 8.139a3.02 3.02 0 0 0-1.722 1.228c-.286.427-.408.832-.434 1.439-.02.472-.007.582.118.954.569 1.695 2.397 2.469 3.971 1.681 1.246-.623 1.883-2.11 1.448-3.376-.317-.922-.888-1.517-1.762-1.836-.445-.162-1.174-.203-1.619-.09m13.192-.044c-1.745.292-2.81 2.153-2.186 3.821.455 1.214 1.796 2.003 3.069 1.805a2.91 2.91 0 0 0 2.346-2.096c.101-.378.098-1.066-.005-1.462-.355-1.361-1.822-2.303-3.224-2.068m-6.533.547c-.671.109-1.347.413-1.625.729-.402.458-.17 1.194.428 1.355.254.068.401.033.877-.21.341-.174.412-.19.826-.191.421 0 .484.015.88.211.291.144.495.21.64.209.759-.01 1.105-.935.546-1.463-.178-.169-.778-.458-1.151-.555-.403-.104-1.062-.144-1.421-.085m-5.481 1.254c.865.403.824 1.656-.066 2.063-.738.337-1.569-.225-1.572-1.063-.004-.848.848-1.368 1.638-1m12.909-.048c.436.182.705.588.705 1.064 0 1.054-1.27 1.539-1.964.749-.223-.254-.284-.415-.284-.749 0-.486.19-.802.606-1.009.319-.159.642-.178.937-.055"/></svg>

<svg width="32" height="32" viewBox="0 0 32 32" fill="none" xmlns="http://www.w3.org/2000/svg"><path d="M24.773 4.678 C 24.607 4.719,24.328 4.950,24.240 5.120 C 24.120 5.352,24.138 5.712,24.280 5.921 C 24.463 6.189,24.635 6.290,25.014 6.350 C 25.434 6.417,25.721 6.594,25.863 6.873 C 25.943 7.030,26.211 8.703,26.985 13.873 C 27.545 17.609,28.008 20.713,28.015 20.769 C 28.025 20.860,27.843 20.917,26.311 21.303 C 24.496 21.759,24.419 21.790,24.235 22.144 C 24.138 22.331,24.139 22.685,24.238 22.876 C 24.281 22.959,24.388 23.088,24.476 23.162 C 24.784 23.421,24.863 23.412,27.202 22.826 C 28.388 22.529,29.434 22.240,29.527 22.182 C 29.619 22.125,29.738 21.989,29.790 21.879 L 29.884 21.680 28.779 14.293 C 28.171 10.231,27.627 6.748,27.571 6.554 C 27.448 6.133,27.127 5.632,26.787 5.333 C 26.255 4.865,25.293 4.552,24.773 4.678 M2.635 13.595 C 2.392 13.705,2.198 13.972,2.151 14.257 C 2.088 14.644,2.423 15.093,2.840 15.182 L 2.987 15.213 2.988 16.473 C 2.989 17.895,3.038 18.245,3.317 18.815 C 3.437 19.059,3.620 19.302,3.893 19.576 C 4.330 20.015,4.725 20.252,5.280 20.409 C 5.609 20.502,6.025 20.507,13.493 20.507 C 22.247 20.507,21.635 20.531,22.367 20.148 C 22.767 19.938,23.439 19.279,23.642 18.897 C 23.939 18.339,24.000 17.932,24.000 16.504 L 24.000 15.212 24.200 15.174 C 24.487 15.121,24.782 14.796,24.829 14.482 C 24.882 14.130,24.697 13.775,24.375 13.613 L 24.137 13.493 13.495 13.495 C 3.236 13.496,2.845 13.499,2.635 13.595 M6.328 21.734 C 5.647 21.907,5.006 22.364,4.606 22.962 C 4.320 23.389,4.198 23.794,4.172 24.401 C 4.152 24.873,4.165 24.983,4.290 25.355 C 4.859 27.050,6.687 27.824,8.261 27.036 C 9.507 26.413,10.144 24.926,9.709 23.660 C 9.392 22.738,8.821 22.143,7.947 21.824 C 7.502 21.662,6.773 21.621,6.328 21.734 M19.520 21.690 C 17.775 21.982,16.710 23.843,17.334 25.511 C 17.789 26.725,19.130 27.514,20.403 27.316 C 21.521 27.143,22.461 26.302,22.749 25.220 C 22.850 24.842,22.847 24.154,22.744 23.758 C 22.389 22.397,20.922 21.455,19.520 21.690 M12.987 22.237 C 12.316 22.346,11.640 22.650,11.362 22.966 C 10.960 23.424,11.192 24.160,11.790 24.321 C 12.044 24.389,12.191 24.354,12.667 24.111 C 13.008 23.937,13.079 23.921,13.493 23.920 C 13.914 23.920,13.977 23.935,14.373 24.131 C 14.664 24.275,14.868 24.341,15.013 24.340 C 15.772 24.330,16.118 23.405,15.559 22.877 C 15.381 22.708,14.781 22.419,14.408 22.322 C 14.005 22.218,13.346 22.178,12.987 22.237 M7.506 23.491 C 8.371 23.894,8.330 25.147,7.440 25.554 C 6.702 25.891,5.871 25.329,5.868 24.491 C 5.864 23.643,6.716 23.123,7.506 23.491 M20.415 23.443 C 20.851 23.625,21.120 24.031,21.120 24.507 C 21.120 25.561,19.850 26.046,19.156 25.256 C 18.933 25.002,18.872 24.841,18.872 24.507 C 18.872 24.021,19.062 23.705,19.478 23.498 C 19.797 23.339,20.120 23.320,20.415 23.443 " fill="#1A1C1F" stroke="none" fill-rule="evenodd"></path></svg>
